!!!OTL: 184. Sher
!!!Genre:	Sher
!!!Mode:	Altered Dorian
!!!Listening/dance:	dance
!!!One_Mode:	no
**kern
*I"P1
*clefG2
*k[b-]
*g:dor
*M2/4
*>A
=1
8d
4g
8a
=2
4b-
4dd
=3
(8qdd/
8cc#XL)
8b-J
8aL
8gJ
=4
(8ddL
16cc#XL
16eeJJ
4dd)
=5
8d
4g
8a
=6
4b-
4dd
*>A1
=7
(8qdd/
8cc#XL)
8b-
8a
8b-J
=8
4.g
16dLL
16dJJ
*>A2
=9:|!
(8qdd/
8cc#L)
8b-
8a
8ddJ
=
4.g
*>bM
*g:
=10!|:
*k[b-e-]
*>B
8g
=11
(8ee-L
8cc)
8cc
8ccJ
=12
8ddL
8b-
8b-
8ddJ
=13
(16ddLL
16cc#XJ
8b-J)
(16b-LL
16aJ
8gJ)
=14
*^
8ddL	4dd
8gg	.
8dd	4gg
8ggJ	.
*v	*v
=15
8ee-L
8cc
8cc
8ccJ
=16
8ddL
8b-
8b-
8ddJ
=17
16ddLL
16cc#XJ
8b-J
16b-LL
16aJ
8gJ
*>B1
=18
4.g
*>B2
=19:|!
4g
8d
*>eM
==
*-
